X:1
T:Title
%%score { ( 1 3 ) | ( 2 4 ) }
L:1/8
Q:1/4=100
M:3/4
K:Bb
V:1 treble nm="Grand Piano"
V:3 treble 
V:2 bass 
V:4 bass 
V:1
 [DF]2 [B,D]2 [EG]2 | [DF][B,D] [DB]4 | [EA]E G3 A | [DG][B,D] [DF]4 | [DF]2 [DF]2 [CD^F]2 | %5
w: A.~H.~Ackley * *|||||
 z2 G2 z2 | [=Ed]>[Ed] [Ec]2 z B, |[M:7/8] F-F-F- F- F3 |[M:3/4] [DB]2 [DB]2 [FA]2 | %9
w: ||||
 [FA][EG] [EG]4 | [=Ec]2 [Ec]2 [EB]2 |[M:5/8] B>A A3 |[M:1/8] F |[M:3/4] [Fd]2 [Fc]2 [FB]2 | %14
w: |||||
[M:7/8] [Gc][Gd] [Ge]3 [Gd][Gc][Q:1/4=97][Q:1/4=94][Q:1/4=91][Q:1/4=88][Q:1/4=84][Q:1/4=81][Q:1/4=78] | %15
w: |
[M:3/4] [Ff]4 [Af]2 | [B,DB]6 |] %17
w: ||
V:2
 [B,,B,]2 [B,,F,]2 [B,,B,]2 | [B,,B,][B,,F,] [B,,F,]4 | [C,F,][F,A,C] [F,A,E]3 [F,A,E] | %3
 [B,,B,][B,,F,] [B,,B,]4 | [B,,B,]2 [B,,B,]2 [A,,A,]2 | [G,,G,][G,,G,] [G,,G,]4 | %6
 [C,B,]>[C,B,] [C,B,]2 .[C,B,C]2 |[M:7/8] [A,C] z z z z z2 |[M:3/4] [B,,F,]2 [B,,F,]2 [D,B,]2 | %9
 [E,B,][E,B,] [E,B,]4 | [C,B,]2 [C,G,]2 [C,C]2 |[M:5/8] [F,CE]>[F,CE] [F,CE]3 |[M:1/8] [F,A,] | %13
[M:3/4] [B,,B,]2 [C,A,]2 [D,B,]2 |[M:7/8] [E,B,][D,=B,] [C,C]3 [D,B,][E,C] |[M:3/4] [F,D]4 FE | %16
 B,,6 |] %17
V:3
 x6 | x6 | x6 | x6 | x6 | [B,DG][B,D] [B,B]2- [B,FB]2 | z2 z2 =E2 |[M:7/8] z CD D E3 |[M:3/4] x6 | %9
 x6 | x6 |[M:5/8] x5 |[M:1/8] x |[M:3/4] x6 |[M:7/8] x7 |[M:3/4] x6 | x6 |] %17
V:4
 x6 | x6 | x6 | x6 | x6 | x6 | x6 |[M:7/8] F,-[F,-A,][F,-B,] [F,-B,] [F,A,]3 |[M:3/4] x6 | x6 | %10
 x6 |[M:5/8] x5 |[M:1/8] x |[M:3/4] x6 |[M:7/8] x7 |[M:3/4] z2 z2 [F,C]2 | x6 |] %17

